src/assets/icon-app-chaind.svg

<svg width="66" height="66" viewBox="0 0 66 66" fill="none" xmlns="http://www.w3.org/2000/svg">
<rect width="66" height="66" rx="12" fill="url(#paint0_linear)"/>
<g clip-path="url(#clip0)">
<path d="M29.4641 23.8072V15.4884L28.0499 18.3169V23.8072H26.6356V18.8572H15.3213V30.1715H26.6356V25.2215H28.0499V27.5466L29.083 25.2215H35.8284V23.8072H29.4641Z" fill="white"/>
<path d="M17.8797 13.2L15.7583 17.4429H26.9057L29.0271 13.2H17.8797Z" fill="white"/>
<path d="M26.9057 40.0714L29.0271 35.8285H21.6856V30.8785H20.2713V35.8285H17.8797L15.7583 40.0714H20.2713V41.4857H15.3213V52.8H26.6356V41.4857H21.6856V40.0714H26.9057Z" fill="white"/>
<path d="M36.5356 41.4857V46.4357H29.4642V38.1169L28.0499 40.9455V46.4357H27.3428V47.85H28.0499V50.1751L29.0831 47.85H36.5356V52.8H47.8499V41.4857H36.5356Z" fill="white"/>
<path d="M42.8999 35.8286V30.1714H47.8499V18.8571H36.5356V30.1714H41.4856V35.8286H39.0941L36.9727 40.0714H41.4856V40.7786H42.8999V40.0714H48.1201L50.2415 35.8286H42.8999Z" fill="white"/>
<path d="M49.2642 40.9455V50.1751L50.6784 46.993V38.1169L49.2642 40.9455Z" fill="white"/>
<path d="M49.2642 18.3169V27.5466L50.6784 24.3644V15.4884L49.2642 18.3169Z" fill="white"/>
<path d="M39.0941 13.2L36.9727 17.4429H48.1201L50.2415 13.2H39.0941Z" fill="white"/>
</g>
<defs>
<linearGradient id="paint0_linear" x1="0" y1="0" x2="66" y2="66" gradientUnits="userSpaceOnUse">
<stop stop-color="#40FFDD"/>
<stop offset="1" stop-color="#7140FF"/>
</linearGradient>
<clipPath id="clip0">
<rect x="13.2" y="13.2" width="39.6" height="39.6" fill="white"/>
</clipPath>
</defs>
</svg>

<svg width="66" height="66" fill="none" xmlns="http://www.w3.org/2000/svg"><rect width="66" height="66" rx="12" fill="url(#a)"/><g clip-path="url(#b)" fill="#fff"><path d="M29.464 23.807v-8.319l-1.414 2.829v5.49h-1.414v-4.95H15.32v11.315h11.315v-4.95h1.414v2.325l1.033-2.326h6.745v-1.414h-6.364z"/><path d="m17.88 13.2-2.122 4.243h11.148l2.121-4.243H17.88zm9.026 26.871 2.121-4.242h-7.341v-4.95H20.27v4.95h-2.39l-2.122 4.242h4.513v1.415h-4.95V52.8h11.315V41.486h-4.95V40.07h5.22z"/><path d="M36.536 41.486v4.95h-7.072v-8.32l-1.414 2.83v5.49h-.707v1.414h.707v2.325l1.033-2.325h7.453v4.95H47.85V41.486H36.536z"/><path d="M42.9 35.829V30.17h4.95V18.857H36.536v11.314h4.95v5.658h-2.392l-2.121 4.242h4.513v.708H42.9v-.708h5.22l2.122-4.242H42.9zm6.364 5.117v9.23l1.414-3.183v-8.876l-1.414 2.829zm0-22.629v9.23l1.414-3.183v-8.876l-1.414 2.829zM39.094 13.2l-2.121 4.243H48.12l2.122-4.243H39.094z"/></g><defs><linearGradient id="a" x1="0" y1="0" x2="66" y2="66" gradientUnits="userSpaceOnUse"><stop stop-color="#40FFDD"/><stop offset="1" stop-color="#7140FF"/></linearGradient><clipPath id="b"><path fill="#fff" d="M13.2 13.2h39.6v39.6H13.2z"/></clipPath></defs></svg>
